X: 1243
T: The Mountain Lark
M:C|
L:1/8
R:Reel
B:O'Neill's 1243
N:No. 1
N:Collected by Kennedy
N:Setting No.1
N:Collected by Kenned
Z:Transcribed by Trish O'Neil
K:Em
D2(BA) Bdef|deBd AFDF|E2(BA) Bdef|dBAF BEEz|
D2(BA) Bdef|deBd AFDF|E2(BA) Bdef|gefd (Be) ez||
eB-~B2efge|fdad bdad|eB-~B2efge|fe^dfe2(ef)|
eBBB efge|fdad bdad|gafg egfe|dBAF (BE)Ez||


